src/assets/img/spare_parts/gears.svg

<svg width="669" height="453" viewBox="0 0 669 453" fill="none" xmlns="http://www.w3.org/2000/svg">
<path d="M361.269 244.167C361.949 238.504 362.402 232.615 362.402 226.5C362.402 220.384 361.949 214.495 361.043 208.833L399.321 178.935C402.719 176.217 403.625 171.234 401.586 167.383L365.346 104.643C363.081 100.566 358.325 99.2068 354.248 100.566L309.174 118.686C299.661 111.438 289.695 105.549 278.597 101.019L271.802 53.0008C271.122 48.4708 267.272 45.2998 262.742 45.2998H190.262C185.732 45.2998 182.108 48.4708 181.428 53.0008L174.633 101.019C163.535 105.549 153.342 111.664 144.056 118.686L98.9824 100.566C94.9054 98.9803 90.1489 100.566 87.8839 104.643L51.6439 167.383C49.3789 171.46 50.2849 176.217 53.9089 178.935L92.1874 208.833C91.2814 214.495 90.6019 220.611 90.6019 226.5C90.6019 232.389 91.0549 238.504 91.9609 244.167L53.6824 274.065C50.2849 276.783 49.3789 281.766 51.4174 285.616L87.6574 348.357C89.9224 352.434 94.6789 353.793 98.7559 352.434L143.829 334.314C153.342 341.562 163.308 347.451 174.407 351.981L181.202 399.999C182.108 404.529 185.732 407.7 190.262 407.7H262.742C267.272 407.7 271.122 404.529 271.575 399.999L278.37 351.981C289.469 347.451 299.661 341.335 308.948 334.314L354.021 352.434C358.098 354.019 362.855 352.434 365.12 348.357L401.36 285.616C403.625 281.539 402.719 276.783 399.095 274.065L361.269 244.167ZM226.502 294.45C189.129 294.45 158.552 263.872 158.552 226.5C158.552 189.127 189.129 158.55 226.502 158.55C263.874 158.55 294.452 189.127 294.452 226.5C294.452 263.872 263.874 294.45 226.502 294.45Z" fill="#A6A4A6" fill-opacity="0.1"/>
<path d="M599.95 170.015C600.141 166.344 600.176 162.537 599.911 158.604C599.645 154.671 599.098 150.903 598.269 147.301L621.588 126.41C623.655 124.514 624.021 121.27 622.543 118.882L596.51 80.1069C594.876 77.5833 591.758 76.9159 589.195 77.967L560.994 91.5787C554.562 87.3307 547.896 83.9763 540.562 81.5451L534.106 50.9587C533.472 48.0749 530.858 46.2028 527.944 46.3996L481.33 49.5486C478.417 49.7454 476.224 51.9422 475.984 54.8851L473.7 86.0619C466.759 89.4575 460.47 93.8333 454.803 98.7525L425.027 89.0573C422.336 88.2148 419.346 89.4411 418.067 92.1615L397.486 134.086C396.206 136.806 396.995 139.826 399.444 141.417L425.361 158.982C425.024 162.663 424.853 166.625 425.109 170.413C425.365 174.2 425.922 178.114 426.751 181.716L403.432 202.607C401.365 204.503 400.998 207.747 402.477 210.135L428.509 248.91C430.143 251.434 433.261 252.101 435.824 251.05L464.025 237.438C470.458 241.686 477.123 245.041 484.458 247.472L490.914 278.058C491.693 280.932 494.162 282.814 497.075 282.617L543.689 279.468C546.602 279.272 548.941 277.065 549.036 274.132L551.319 242.955C558.26 239.56 564.55 235.184 570.217 230.265L599.992 239.96C602.683 240.802 605.673 239.576 606.953 236.855L627.534 194.931C628.813 192.211 628.024 189.191 625.575 187.6L599.95 170.015ZM515.462 208.209C491.427 209.833 470.433 191.496 468.809 167.461C467.186 143.425 485.522 122.432 509.558 120.808C533.593 119.184 554.586 137.521 556.21 161.556C557.834 185.592 539.497 206.585 515.462 208.209Z" fill="#A6A4A6" fill-opacity="0.1"/>
</svg>

<svg width="669" height="453" fill="none" xmlns="http://www.w3.org/2000/svg"><path d="M361.269 244.167c.68-5.663 1.133-11.552 1.133-17.667 0-6.116-.453-12.005-1.359-17.667l38.278-29.898c3.398-2.718 4.304-7.701 2.265-11.552l-36.24-62.74c-2.265-4.077-7.021-5.436-11.098-4.077l-45.074 18.12c-9.513-7.248-19.479-13.137-30.577-17.667l-6.795-48.018c-.68-4.53-4.53-7.701-9.06-7.701h-72.48c-4.53 0-8.154 3.17-8.834 7.7l-6.795 48.019c-11.098 4.53-21.291 10.645-30.577 17.667l-45.074-18.12c-4.077-1.586-8.833 0-11.098 4.077l-36.24 62.74c-2.265 4.077-1.36 8.834 2.265 11.552l38.278 29.898c-.906 5.662-1.585 11.778-1.585 17.667 0 5.889.453 12.004 1.359 17.667l-38.279 29.898c-3.397 2.718-4.303 7.701-2.265 11.551l36.24 62.741c2.265 4.077 7.022 5.436 11.099 4.077l45.073-18.12c9.513 7.248 19.479 13.137 30.578 17.667l6.795 48.018c.906 4.53 4.53 7.701 9.06 7.701h72.48c4.53 0 8.38-3.171 8.833-7.701l6.795-48.018c11.099-4.53 21.291-10.646 30.578-17.667l45.073 18.12c4.077 1.585 8.834 0 11.099-4.077l36.24-62.741c2.265-4.077 1.359-8.833-2.265-11.551l-37.826-29.898zM226.502 294.45c-37.373 0-67.95-30.578-67.95-67.95 0-37.373 30.577-67.95 67.95-67.95 37.372 0 67.95 30.577 67.95 67.95 0 37.372-30.578 67.95-67.95 67.95z" fill="#A6A4A6" fill-opacity=".1"/><path d="M599.95 170.015c.191-3.671.226-7.478-.039-11.411-.266-3.933-.813-7.701-1.642-11.303l23.319-20.891c2.067-1.896 2.433-5.14.955-7.528L596.51 80.107c-1.634-2.524-4.752-3.191-7.315-2.14l-28.201 13.612c-6.432-4.248-13.098-7.603-20.432-10.034l-6.456-30.586c-.634-2.884-3.248-4.756-6.162-4.56l-46.614 3.15c-2.913.196-5.106 2.393-5.346 5.336L473.7 86.062c-6.941 3.395-13.23 7.771-18.897 12.69l-29.776-9.695c-2.691-.842-5.681.384-6.96 3.105l-20.581 41.924c-1.28 2.72-.491 5.74 1.958 7.331l25.917 17.565c-.337 3.681-.508 7.643-.252 11.431.256 3.787.813 7.701 1.642 11.303l-23.319 20.891c-2.067 1.896-2.434 5.14-.955 7.528l26.032 38.775c1.634 2.524 4.752 3.191 7.315 2.14l28.201-13.612c6.433 4.248 13.098 7.603 20.433 10.034l6.456 30.586c.779 2.874 3.248 4.756 6.161 4.559l46.614-3.149c2.913-.196 5.252-2.403 5.347-5.336l2.283-31.177c6.941-3.395 13.231-7.771 18.898-12.69l29.775 9.695c2.691.842 5.681-.384 6.961-3.105l20.581-41.924c1.279-2.72.49-5.74-1.959-7.331l-25.625-17.585zm-84.488 38.194c-24.035 1.624-45.029-16.713-46.653-40.748-1.623-24.036 16.713-45.029 40.749-46.653 24.035-1.624 45.028 16.713 46.652 40.748 1.624 24.036-16.713 45.029-40.748 46.653z" fill="#A6A4A6" fill-opacity=".1"/></svg>
